symbols/web/delete_sweep/materialsymbolsrounded/delete_sweep_wght600_20px.svg

<svg xmlns="http://www.w3.org/2000/svg" height="20" width="20"><path d="M13.688 15.5q-.396 0-.688-.292-.292-.291-.292-.687 0-.375.292-.656.292-.282.688-.282h1.645q.396 0 .677.282.282.281.282.656 0 .396-.282.687-.281.292-.677.292Zm0-6.854q-.396 0-.688-.281-.292-.282-.292-.657 0-.396.292-.687.292-.292.688-.292h4.124q.396 0 .678.292.281.291.281.687 0 .375-.281.657-.282.281-.678.281Zm0 3.437q-.396 0-.688-.291-.292-.292-.292-.688 0-.396.292-.687.292-.292.688-.292h3.291q.396 0 .677.292.282.291.282.687 0 .396-.282.688-.281.291-.677.291Zm-9.355 4.146q-.958 0-1.625-.667-.666-.666-.666-1.624V6.729q-.334-.062-.573-.375-.24-.312-.24-.708 0-.458.333-.802.334-.344.792-.344H4.75v-.25q0-.417.354-.729.354-.313.792-.313h1.542q.437 0 .791.313.354.312.354.729v.25h2.375q.459 0 .802.344.344.344.344.802 0 .396-.239.708-.24.313-.573.375v7.209q0 .958-.667 1.624-.667.667-1.625.667Zm0-9.437v7.146H9V6.792Zm0 0v7.146Z"/></svg>

<svg xmlns="http://www.w3.org/2000/svg" height="20" width="20"><path d="M13.688 15.5Q13.292 15.5 13 15.208Q12.708 14.917 12.708 14.521Q12.708 14.146 13 13.865Q13.292 13.583 13.688 13.583H15.333Q15.729 13.583 16.01 13.865Q16.292 14.146 16.292 14.521Q16.292 14.917 16.01 15.208Q15.729 15.5 15.333 15.5ZM13.688 8.646Q13.292 8.646 13 8.365Q12.708 8.083 12.708 7.708Q12.708 7.312 13 7.021Q13.292 6.729 13.688 6.729H17.812Q18.208 6.729 18.49 7.021Q18.771 7.312 18.771 7.708Q18.771 8.083 18.49 8.365Q18.208 8.646 17.812 8.646ZM13.688 12.083Q13.292 12.083 13 11.792Q12.708 11.5 12.708 11.104Q12.708 10.708 13 10.417Q13.292 10.125 13.688 10.125H16.979Q17.375 10.125 17.656 10.417Q17.938 10.708 17.938 11.104Q17.938 11.5 17.656 11.792Q17.375 12.083 16.979 12.083ZM4.333 16.229Q3.375 16.229 2.708 15.562Q2.042 14.896 2.042 13.938V6.729Q1.708 6.667 1.469 6.354Q1.229 6.042 1.229 5.646Q1.229 5.188 1.562 4.844Q1.896 4.5 2.354 4.5H4.75V4.25Q4.75 3.833 5.104 3.521Q5.458 3.208 5.896 3.208H7.438Q7.875 3.208 8.229 3.521Q8.583 3.833 8.583 4.25V4.5H10.958Q11.417 4.5 11.76 4.844Q12.104 5.188 12.104 5.646Q12.104 6.042 11.865 6.354Q11.625 6.667 11.292 6.729V13.938Q11.292 14.896 10.625 15.562Q9.958 16.229 9 16.229ZM4.333 6.792V13.938Q4.333 13.938 4.333 13.938Q4.333 13.938 4.333 13.938H9Q9 13.938 9 13.938Q9 13.938 9 13.938V6.792ZM4.333 6.792V13.938Q4.333 13.938 4.333 13.938Q4.333 13.938 4.333 13.938Q4.333 13.938 4.333 13.938Q4.333 13.938 4.333 13.938Z"/></svg>
